X: 32392
T: Piper's
R: jig
M: 6/8
K: Amajor
e2c ABA|cdef2e|fga aec|ecAB2A|
e2c ABA|cdef2e|fga aec|ecAA3:|
|:cee dfa|ecAF2E|FAA ABd|fecB2A|
cee dfa|ecAF2E|FAA ABd|cAAA3:|

